!!!SOCIAL_FUNCTION:	songs of the alo'wanpi ceremony
!!!PDT:	1918

Specific Region: Dakotas, Minnesota, Montana, Nebraska
!!!REG: Dakotas and Montana
!!!LING_GROUP: Siouan
!!!LANG: Tone
!!!OTL@ENG: Song of Pretended Search
!!!ONM: No. 2
**kern
*Imale
*clefF4
*k[b-e-a-]
*M2/4
*>[A,A]
*>norep[A]
*>A
=1!|:
*MM112
12c
12c
12c
4G
=2
[2c
=3
2c]
=4
12B-
12B-
12B-
4G
=5
[2G
=6
2G]
=7
12F
12F
12F
4E-
=8
[2G
=9
2G]
=10
12G
12F
12E-
4E-
=11
[2E-
=12
2E-]
=13
4E-
4E-
=14
4G
4G
=15
4E-
4C
=16
[2E-
=17
2E-]
=18
8E-
8F
8E-
8C
=19
2C
=20
2C
==:|!
*-
!!!CNT: Native American -- Sioux
!!!MRD: 1911/07//-1914///
!!!OCL: Frances Densmore
!!!YOR1: Teton Sioux Music, Bulletin 61,
!!!YOR2: Bureau of American Ethnology, Smithsonian Institution
!!!PPR: Government Printing Office
!!!PPP: Washington, D.C.
!!!PDT: 1918///
!!!ENC: Craig Stuart Sapp
!!!END: 2002/03/25/
!!!EEV: 2002/03/31/
!!!AGN: Song of the Alowangpi Ceremony
!!!MPN@@SIO: Itung'-kasang-mato'
!!!MPN@ENG: Weasel Bear
!!!TXO: Teton Sioux
!!!MLC: Standing Rock Reservation, North and South Dakota, U.S.A.
!!!ARL: 45.9/-100.7#
!!!catalog: Catalogue No. 649
!!!PPG: 73
!!!EFL: 2/245
!!!VTS: 168059616
